modules/hawcons-filled/icons/note-add.svg

<?xml version="1.0" encoding="UTF-8" standalone="no"?>
<svg width="32px" height="32px" viewBox="0 0 32 32" version="1.1" xmlns="http://www.w3.org/2000/svg" xmlns:xlink="http://www.w3.org/1999/xlink" xmlns:sketch="http://www.bohemiancoding.com/sketch/ns">
    <!-- Generator: Sketch 3.0.3 (7891) - http://www.bohemiancoding.com/sketch -->
    <title>icon 42 note add</title>
    <desc>Created with Sketch.</desc>
    <defs></defs>
    <g id="Page-1" stroke="none" stroke-width="1" fill="none" fill-rule="evenodd" sketch:type="MSPage">
        <g id="icon-42-note-add" sketch:type="MSArtboardGroup" fill="#929292">
            <path d="M23,24 L20,24 L20,23 L23,23 L23,20 L24,20 L24,23 L27,23 L27,24 L24,24 L24,27 L23,27 L23,24 L23,24 Z M18.0218178,27 L5.00086422,27 C3.89581743,27 3,26.0983727 3,24.9991358 L3,10 L26,10 L26,17.4981633 C25.2304079,17.1772281 24.3859009,17 23.5,17 C19.9101489,17 17,19.9101489 17,23.5 C17,24.7886423 17.3749964,25.9896995 18.0218178,27 L18.0218178,27 L18.0218178,27 Z M3,9 L3,6.00086422 C3,4.89581743 3.90162726,4 5.00086422,4 L23.9991358,4 C25.1041826,4 26,4.90162726 26,6.00086422 L26,9 L3,9 L3,9 Z M23.5,29 C26.5375663,29 29,26.5375663 29,23.5 C29,20.4624337 26.5375663,18 23.5,18 C20.4624337,18 18,20.4624337 18,23.5 C18,26.5375663 20.4624337,29 23.5,29 L23.5,29 Z" id="note-add" sketch:type="MSShapeGroup"></path>
        </g>
    </g>
</svg>

<svg width="32" height="32" viewBox="0 0 32 32" xmlns="http://www.w3.org/2000/svg"><path d="M23 24h-3v-1h3v-3h1v3h3v1h-3v3h-1v-3zm-4.978 3H5C3.896 27 3 26.098 3 25V10h23v7.498A6.5 6.5 0 0 0 18.022 27zM3 9V6c0-1.104.902-2 2-2h19c1.104 0 2 .902 2 2v3H3zm20.5 20a5.5 5.5 0 1 0 0-11 5.5 5.5 0 0 0 0 11z" fill="#929292" fill-rule="evenodd"/></svg>
